X: 9264
T: Dan's Castle
R: jig
M: 6/8
K: Dmajor
A2d B2d|Adf edB|d2f e2f|afd edB|
A2d B2d|Adf edB|d2f afd|edB d3|
Add Bdd|Adf edB|dff eff|afd edB|
Add Bdd|Adf edB|def afd|edB d2e|
|:fdB ABd|fag fed|ecB Acd|egf ecA|
fdB ABd|fag fed|Bcd afd|1 edB d2e:|2 edB d3||
|:gBB g2a|gBB B2g|fAA f2g|fAA A2f|
gBB g2a|gBB B2d|cdc cBc|1 e2d d3:|2 e2d d2e||
|:fag fed|fag fed|egf egf|egf ecA|
fag fed|fag fed|Bcd afd|1 edB d2e:|2 edB d3||

